X:1
T:La bella manvi
T:La bella manvi
T:Piero Benedetti
T:Source : Musische di P.Benedetti---Libro secondo---Venetia---R.Amadino---1613. Editor : André Vierendeels (20/06/15).
T:Notes : Original clefs : C1, F4 Figures in BC are notated in original print Composer called "Pietro" in this book Editorial performance suggestion: to be sung by 2 sopranos
T:S1
C:Piero Benedetti
%%score 1 2
L:1/8
Q:1/4=70
M:4/4
K:F
V:1 treble nm="Soprano 1+2" snm="S"
V:2 bass nm="BC" snm="BC"
V:1
 G4 B3 c | _e6 de/f/ | c4 c4 | z cGA B4 | B4 z2 cd | _e4- eA B/c/B | A4 A4 | z dde f3 d | %8
w: La bel- la|ma- vi _ _|strin- go|e voi le ci-|glia per do-|lor _ strin- * * *|ge- te,|e mi chi- am- ma'in-|
 _edcB c4 | B4 z2 de | ff/f/ _ee/d/ c2 d2- | d2 B>A A4 | G8 | z2 d2 d3 c | d4 d4 || %15
w: gius- to'e in- hu- ma-|no, co- me|tut- t'il gio- i- re sia mio vo-|* stro'il mar- ti-|re,|e non ve-|de- te.|
[K:C] z2 AA d2 c>B | B2 B2 z2 Bc | d2 c4 c/G/A/B/ | c4 c4 | c6 de | ^F4 F4 | z dAA _B3 c | c8 || %23
w: Che se que- ste la|ma- no, che tien|stret' il cor _ _ _|mi- o|giu- sto'ei do-|lo- re,|per- che strin- gen- do|lei.|
[K:F] d6 B>A | A8 | G8 | z2 d2 d3 c | d4 d4 | z2 AA d2 c>B | B2 B2 z2 Bc | d2 c4 c/G/A/B/ | c4 c4 | %32
w: Strin- go'il mio|co-|re,|e non ve-|de- te|che se que- ste la|ma- no che tien|stret' il cor _ _ _|mi- o|
 c6 de | ^F4 F4 | z dAA B3 c | c8 | d6 B>A- | A4 A/B/c/d/ c/B/A/G/ | %38
w: giu- sto'ei do-|lo- re,|per- che strin- gen- do|lei,|strin- go'il mio|_ co- * * * * * * *|
 ^F/G/A/G/ A/B/A/B/ c/B/c/d/ B/A/B/G/ | A8 | G8 |] %41
w: ||re.|
V:2
 G,,4 G,4- | G,2 _E,2 F,4 |"^4""^#" F,4 F,4 | C,4 B,,2 A,,2 |"^b" G,,4 C,4- | C,4 =B,,4 |"^#" D,8 | %7
 B,4 A,2 G,2 |"^4     5" _E,2 D,2 F,2 F,2 | B,,4 B,,4 | B,,2 _E,2 F,4 |"^4""^#" G,2 C,2 D,2 D,2 | %12
 G,,8 | G,4 _E,4 |"^#" D,8 ||[K:C]"^#" D,8 | G,,4 G,4 | G,2 E,2 F,2 G,2 |"^S1" C,8 | C,4 B,,4 | %20
"^#" D,8 |"^#" D,4 G,4 | E,4 F,4 ||[K:F] ^F,2 G,D, =B,,2 G,,2 |"^4""^#" D,4 D,4 |"^-natural" G,,8 | %26
 G,4 _E,4 |"^#" D,8 |"^#" D,8 | G,,4 G,4 | G,2 E,2 F,2 G,2 | C,8 | C,4 B,,4 |"^#" D,8 | %34
"^#" D,4 G,4 | E,4 F,4 | ^F,2 G,D, =B,,2 G,,2 |"^#" D,8- | D,8 |"^#""^4" D,4 D,4 | G,,8 |] %41

